icon-svg/nest-mini-alt.svg

<?xml version="1.0" encoding="UTF-8" standalone="no"?>
<!-- Created with Inkscape (http://www.inkscape.org/) -->

<svg
   version="1.1"
   width="24"
   height="24"
   viewBox="0 0 24 24"
   xmlns="http://www.w3.org/2000/svg"
   xmlns:svg="http://www.w3.org/2000/svg">
  <path
     style="fill:#44739e"
     d="M 10.235856,23.906029 C 5.4825002,23.185547 1.5784364,19.690279 0.38841833,15.089722 -0.11712428,13.135317 -0.12962137,10.966773 0.35352233,9.0341443 1.2040005,5.6321305 3.5186089,2.7887595 6.7316812,1.1989184 8.3998432,0.3735059 10.048734,-0.00146795 12.003726,5.5107701e-6 13.192394,9.0258077e-4 14.045657,0.10527106 15.082404,0.37658988 19.236544,1.4637337 22.547847,4.7769262 23.619036,8.9180956 23.893588,9.9795029 24,10.841437 24,12.003908 c 0,0.595861 -0.04103,1.308042 -0.09784,1.697927 -0.773336,5.308279 -4.920616,9.46088 -10.198485,10.211579 -0.833598,0.118565 -2.662552,0.114662 -3.467822,-0.0074 z M 7.494587,12.787013 C 8.1235195,12.488337 8.1142194,11.515065 7.47954,11.213665 7.0609318,11.014876 6.5512644,11.1776 6.3455417,11.575723 5.949678,12.341825 6.7206325,13.154552 7.494575,12.787013 Z m 3.294305,-0.02452 c 0.430433,-0.262638 0.576043,-0.783849 0.331239,-1.185666 -0.191012,-0.313512 -0.482449,-0.470017 -0.812567,-0.436341 -0.895005,0.0913 -1.117452,1.230308 -0.319775,1.637365 0.28345,0.144657 0.547164,0.139586 0.801103,-0.01521 z m 3.352965,-0.04527 c 0.539188,-0.395328 0.474494,-1.182749 -0.12219,-1.487241 -0.28345,-0.144657 -0.547164,-0.139586 -0.801103,0.01521 -0.595821,0.363553 -0.595821,1.146593 0,1.520858 0.250562,0.157398 0.672349,0.135022 0.923296,-0.04899 z m 3.257968,0.02062 c 0.474453,-0.311112 0.476363,-1.155464 0.0032,-1.465654 -0.241432,-0.158305 -0.612794,-0.183135 -0.875238,-0.05851 -0.629624,0.299003 -0.64496,1.258016 -0.02518,1.574461 0.243946,0.124542 0.666585,0.100848 0.897102,-0.05029 z"
     />
</svg>

<svg xmlns="http://www.w3.org/2000/svg" viewBox="0 0 24 24"><path fill="#44739e" d="M10.2359 23.906c-4.7534-.7205-8.6575-4.2157-9.8475-8.8163-.5055-1.9544-.518-4.123-.0349-6.0556.8505-3.402 3.1651-6.2453 6.3782-7.8352C8.3998.3735 10.0487-.0015 12.0037 0c1.1887.0009 2.042.1053 3.0787.3766 4.1541 1.0871 7.4654 4.4003 8.5366 8.5415.2746 1.0614.381 1.9233.381 3.0858 0 .5959-.041 1.308-.0978 1.698-.7734 5.3082-4.9207 9.4608-10.1985 10.2115-.8336.1186-2.6626.1147-3.4678-.0074M7.4946 12.787c.629-.2987.6196-1.272-.015-1.5733-.4187-.1988-.9283-.0361-1.134.362-.396.7661.375 1.5789 1.149 1.2113m3.2943-.0245c.4304-.2626.576-.7839.3312-1.1857-.191-.3135-.4824-.47-.8125-.4363-.895.0913-1.1175 1.2303-.3198 1.6374.2834.1446.5472.1395.801-.0153zm3.353-.0453c.5391-.3953.4745-1.1827-.1222-1.4872-.2835-.1447-.5472-.1396-.8011.0152-.5959.3635-.5959 1.1466 0 1.5208.2505.1574.6723.135.9233-.049zm3.258.0206c.4744-.311.4763-1.1554.0031-1.4656-.2414-.1583-.6128-.1831-.8752-.0585-.6296.299-.645 1.258-.0252 1.5744.244.1246.6666.1009.8971-.0503z"/></svg>
